svg/black/eca.svg

<svg height="32" viewBox="0 0 32 32" width="32" xmlns="http://www.w3.org/2000/svg"><path d="m16 32c-8.836556 0-16-7.163444-16-16s7.163444-16 16-16 16 7.163444 16 16-7.163444 16-16 16zm-.0009501-6.387763c-.2409872 0-.4363459.1987325-.4363459.4438815s.1953587.4438815.4363459.4438815.4363459-.1987325.4363459-.4438815c-.0010436-.2447079-.1957923-.4428199-.4363459-.4438815zm-8.78027029-14.2546055c.15345868.0903593.34532037.0777489.48607272-.0319479.14075234-.1096968.20265828-.2948629.15683583-.4691098-.04582245-.1742468-.1903434-.3032367-.36613712-.32679s-.34821781.0629715-.43682844.2192066c-.12083827.2130578-.0492145.485418.16005701.6086411zm0 9.2943749c-.20859919.1225964-.28006109.3939682-.15964083.6062256.12042025.2122574.38715265.2850767.59586129.1626733.20870865-.1224034.280413-.3937091.16018245-.6060777-.12107452-.2117272-.38738887-.2844324-.59640291-.1628212zm17.56054059-9.2943749c.1541201-.0896722.2398267-.2650787.2170436-.4442001-.0227831-.1791213-.1495536-.3265606-.321034-.3733757-.1714804-.046815-.3537838.0162454-.4616657.1596946-.1078818.1434491-.1200232.3389393-.0307468.49506.1210745.2117271.3873888.2844324.5964029.1628212zm-8.7802703-4.96992234c.1771462.00314818.338578-.10298122.408524-.2685742.0699461-.16559298.034519-.35777193-.0896527-.48633376-.1241718-.12856183-.3124347-.16798127-.4764236-.09975601-.1639889.06822527-.2711448.23054947-.2711718.41078246-.0000364.24215275.1907186.43965177.4287241.44388151zm7.8008738 14.19451674c.2177731-.3883713.6837751-.5538337 1.0918175-.3876694v-8.3949819c-.4061171.1666007-.8708303.0034787-1.089532-.3824436-.2187016-.3859223-.1245883-.8767632.2206511-1.150789l-7.153024-4.19846013c-.0610255.44104079-.4320065.76902889-.8698337.76902889s-.8088081-.3279881-.8698336-.76902889l-7.15111859 4.20039843c.34333257.2749476.43580484.7648066.21700733 1.1495661-.2187975.3847596-.68233367.5474235-1.08779368.3817282v8.4007969c.40611711-.1666006.87083032-.0034786 1.08953197.3824436.21870165.3859223.12458834.8767632-.22065106 1.1507891l7.15302403 4.2003984c.0610255-.4410408.4320064-.7690289.8698336-.7690289s.8088082.3279881.8698337.7690289l7.1511185-4.2003984c-.3456856-.273978-.4399914-.7652285-.2210311-1.1513783zm-6.1126534-1.2870625c.7692017-.4493962 1.351591-1.1679105 1.6386789-2.0216962.4249132-1.2657407 2.3360702-.5601824 1.6215299 1.0835361 0 .0155068-.013338.0310136-.0190544.044582l2.3513137 1.3801032c.1968362.1194428.2628816.3775577.1482721.5794683-.1146095.2019105-.3673795.2727533-.567469.159042l-2.3360702-1.3684731c-.470528.7496118-1.1100316 1.3742439-1.8654263 1.8220464-.6734098.4017271-1.4240715.6509797-2.2007839.7307569v2.5993236c0 .2430079-.1936525.4400048-.432535.4400048s-.432535-.1969969-.432535-.4400048v-2.5780018c-1.7342884-.1006532-3.3278757-1.003332-4.3253502-2.4500709l-2.12647172 1.2463572c-.20047187.1182925-.45725341.0488663-.57353762-.1550677s-.04803663-.4651501.15243524-.5834425l2.11885-1.244419c-.1378335-.2910724-.251909-.5931799-.3410739-.9032698l-.2019767-1.1436248c-.0770401-1.0369714.1272821-2.0755552.5906866-3.0024999l-2.166486-1.2734941c-.19994569-.1172219-.26861983-.3771363-.15338796-.580535.11523186-.2033987.37073376-.2732589.57067946-.156037l2.1836349 1.2812475c.4662051-.6555739 1.0636585-1.2032287 1.7530054-1.6068898.7690402-.452546 1.6334599-.7110996 2.5208979-.7540171v-2.70399436c0-.24300795.1936525-.44000482.432535-.44000482s.432535.19699687.432535.44000482v2.72919286c1.6306344.1844406 3.1013302 1.0825219 4.0281015 2.4597627l2.3818007-1.4053018c.0957031-.0579081.2103211-.074101.3179145-.0449139s.1990664.1012866.2537177.1999817c.1134887.2046244.0437817.4640543-.1562461.5815042l-3.2392491 1.9053953-.0438251.0213218-.7621762.4496966-1.6081919.9439751-4.7178709 2.7640831c1.1135946 1.5137834 3.1642225 1.9409848 4.7731287.9943722zm7.0920499 1.356843c-.2087633-.1223069-.4754632-.0493642-.5957886.1629488s-.0487423.4836518.1599117.6061517c.2086539.1224999.4754188.0498039.5959339-.1623978.0579435-.1020264.0736325-.2233026.0436097-.3371052s-.1032935-.2107924-.2036667-.2695975zm-12.4958795-4.0647141 5.8592299-3.4425047c-1.1801667-.9588396-2.8172876-1.0842249-4.1252789-.3159506-1.5796103.9284683-1.7777761 2.0914767-1.733951 3.7584553z"/></svg>

<svg xmlns="http://www.w3.org/2000/svg" width="32" height="32" viewBox="0 0 32 32">
  <path d="M16,32 C7.163444,32 0,24.836556 0,16 C0,7.163444 7.163444,0 16,0 C24.836556,0 32,7.163444 32,16 C32,24.836556 24.836556,32 16,32 Z M15.9990499,25.612237 C15.7580627,25.612237 15.562704,25.8109695 15.562704,26.0561185 C15.562704,26.3012675 15.7580627,26.5 15.9990499,26.5 C16.2400371,26.5 16.4353958,26.3012675 16.4353958,26.0561185 C16.4343522,25.8114106 16.2396035,25.6132986 15.9990499,25.612237 Z M7.21877961,11.3576315 C7.37223829,11.4479908 7.56409998,11.4353804 7.70485233,11.3256836 C7.84560467,11.2159868 7.90751061,11.0308207 7.86168816,10.8565738 C7.81586571,10.682327 7.67134476,10.5533371 7.49555104,10.5297838 C7.31975732,10.5062305 7.14733323,10.5927553 7.0587226,10.7489904 C6.93788433,10.9620482 7.0095081,11.2344084 7.21877961,11.3576315 Z M7.21877961,20.6520064 C7.01018042,20.7746028 6.93871852,21.0459746 7.05913878,21.258232 C7.17955903,21.4704894 7.44629143,21.5433087 7.65500007,21.4209053 C7.86370872,21.2985019 7.93541307,21.0271962 7.81518252,20.8148276 C7.694108,20.6031004 7.42779365,20.5303952 7.21877961,20.6520064 Z M24.7793202,11.3576315 C24.9334403,11.2679593 25.0191469,11.0925528 24.9963638,10.9134314 C24.9735807,10.7343101 24.8468102,10.5868708 24.6753298,10.5400557 C24.5038494,10.4932407 24.321546,10.5563011 24.2136641,10.6997503 C24.1057823,10.8431994 24.0936409,11.0386896 24.1829173,11.1948103 C24.3039918,11.4065374 24.5703061,11.4792427 24.7793202,11.3576315 Z M15.9990499,6.38770916 C16.1761961,6.39085734 16.3376279,6.28472794 16.4075739,6.11913496 C16.47752,5.95354198 16.4420929,5.76136303 16.3179212,5.6328012 C16.1937494,5.50423937 16.0054865,5.46481993 15.8414976,5.53304519 C15.6775087,5.60127046 15.5703528,5.76359466 15.5703258,5.94382765 C15.5702894,6.1859804 15.7610444,6.38347942 15.9990499,6.38770916 Z M23.7999237,20.5822259 C24.0176968,20.1938546 24.4836988,20.0283922 24.8917412,20.1945565 L24.8917412,11.7995746 C24.4856241,11.9661753 24.0209109,11.8030533 23.8022092,11.417131 C23.5835076,11.0312087 23.6776209,10.5403678 24.0228603,10.266342 L16.8698363,6.06788187 C16.8088108,6.50892266 16.4378298,6.83691076 16.0000026,6.83691076 C15.5621754,6.83691076 15.1911945,6.50892266 15.130169,6.06788187 L7.97905041,10.2682803 C8.32238298,10.5432279 8.41485525,11.0330869 8.19605774,11.4178464 C7.97726024,11.802606 7.51372407,11.9652699 7.10826406,11.7995746 L7.10826406,20.2003715 C7.51438117,20.0337709 7.97909438,20.1968929 8.19779603,20.5828151 C8.41649768,20.9687374 8.32238437,21.4595783 7.97714497,21.7336042 L15.130169,25.9340026 C15.1911945,25.4929618 15.5621754,25.1649737 16.0000026,25.1649737 C16.4378298,25.1649737 16.8088108,25.4929618 16.8698363,25.9340026 L24.0209548,21.7336042 C23.6752692,21.4596262 23.5809634,20.9683757 23.7999237,20.5822259 Z M17.6872703,19.2951634 C18.456472,18.8457672 19.0388613,18.1272529 19.3259492,17.2734672 C19.7508624,16.0077265 21.6620194,16.7132848 20.9474791,18.3570033 C20.9474791,18.3725101 20.9341411,18.3880169 20.9284247,18.4015853 L23.2797384,19.7816885 C23.4765746,19.9011313 23.54262,20.1592462 23.4280105,20.3611568 C23.313401,20.5630673 23.060631,20.6339101 22.8605415,20.5201988 L20.5244713,19.1517257 C20.0539433,19.9013375 19.4144397,20.5259696 18.659045,20.9737721 C17.9856352,21.3754992 17.2349735,21.6247518 16.4582611,21.704529 L16.4582611,24.3038526 C16.4582611,24.5468605 16.2646086,24.7438574 16.0257261,24.7438574 C15.7868436,24.7438574 15.5931911,24.5468605 15.5931911,24.3038526 L15.5931911,21.7258508 C13.8589027,21.6251976 12.2653154,20.7225188 11.2678409,19.2757799 L9.14136918,20.5221371 C8.94089731,20.6404296 8.68411577,20.5710034 8.56783156,20.3670694 C8.45154735,20.1631354 8.51979493,19.9019193 8.7202668,19.7836269 L10.8391168,18.5392079 C10.7012833,18.2481355 10.5872078,17.946028 10.4980429,17.6359381 L10.2960662,16.4923133 C10.2190261,15.4553419 10.4233483,14.4167581 10.8867528,13.4898134 L8.7202668,12.2163193 C8.52032111,12.0990974 8.45164697,11.839183 8.56687884,11.6357843 C8.6821107,11.4323856 8.9376126,11.3625254 9.1375583,11.4797473 L11.3211932,12.7609948 C11.7873983,12.1054209 12.3848517,11.5577661 13.0741986,11.154105 C13.8432388,10.701559 14.7076585,10.4430054 15.5950965,10.4000879 L15.5950965,7.69609354 C15.5950965,7.45308559 15.788749,7.25608872 16.0276315,7.25608872 C16.266514,7.25608872 16.4601665,7.45308559 16.4601665,7.69609354 L16.4601665,10.4252864 C18.0908009,10.609727 19.5614967,11.5078083 20.488268,12.8850491 L22.8700687,11.4797473 C22.9657718,11.4218392 23.0803898,11.4056463 23.1879832,11.4348334 C23.2955766,11.4640205 23.3870496,11.53612 23.4417009,11.6348151 C23.5551896,11.8394395 23.4854826,12.0988694 23.2854548,12.2163193 L20.0462057,14.1217146 L20.0023806,14.1430364 L19.2402044,14.592733 L17.6320125,15.5367081 L12.9141416,18.3007912 C14.0277362,19.8145746 16.0783641,20.241776 17.6872703,19.2951634 Z M24.7793202,20.6520064 C24.5705569,20.5296995 24.303857,20.6026422 24.1835316,20.8149552 C24.0632062,21.0272682 24.1347893,21.298607 24.3434433,21.4211069 C24.5520972,21.5436068 24.8188621,21.4709108 24.9393772,21.2587091 C24.9973207,21.1566827 25.0130097,21.0354065 24.9829869,20.9216039 C24.9529641,20.8078013 24.8796934,20.7108115 24.7793202,20.6520064 Z M12.2834407,16.5872923 L18.1426706,13.1447876 C16.9625039,12.185948 15.325383,12.0605627 14.0173917,12.828837 C12.4377814,13.7573053 12.2396156,14.9203137 12.2834407,16.5872923 Z"/>
</svg>
